X:1
T:Title
%%score { 1 | 2 } { ( 3 5 ) | 4 }
L:1/8
M:6/4
K:Ab
V:1 treble nm="Grand Piano, Soprano"
V:2 treble 
V:3 bass nm="Choir Pad, O Star of Matchless Splendor"
V:5 bass 
V:4 bass 
V:1
 E2 E4 A2 d4 | c2 B4- B2 F4 | F2 G4 G2 B4 | G2 E4- E4- E3/2 z/ | E2 F4 B2 A4 | F2 E4- E2 A4 | %6
w: By~Ira~Bishop~Wilson * * *||||||
 A2 A4 F2 B4 | c2 B4- B4- B3/2 z/ | E2 D4 E2 G4 | F2 F4 E2 A4 | E2 D4 E2 G4 | d2 c4- c4- c3/2 z/ | %12
w: ||||||
 c2 c4 c2 d4 | c2 c4 F2 B4 | A2 A4 G2 c4 | B2 A4- A4- A3/2 z/ | e2 B2 c2 d6 | c2 E2 A2 G6 | %18
w: ||||||
 F2 A2 d2 c2 B2 A2 | A2 G2 A2 B6 | c2 c2 c2 e2 B4 | d2 F2 G2 F2 E4 | A2 B2 c2 c2 B2 F2 | %23
w: |||||
 A4 B2 A6- | A6 z6 |] %25
w: ||
V:2
 C2 C4 C2 F4 | E2 D4- D2 D4 | D2 D4 D2 D4 | D2 C4- C4- C3/2 z/ | C2 D4 G2 F4 | D2 C4- C2 C4 | %6
 C2 =D4 D2 D4 | =D2 _D4- D4- D3/2 z/ | C2 B,4 C2 E4 | D2 D4 C2 C4 | C2 B,4 C2 E4 | %11
 F2 =E4- E4- E3/2 z/ | =E2 _E4 E2 F4 | E2 =D4 D2 D4 | =D2 _D4 D2 E4 | D2 C4- C4- C3/2 z/ | %16
 G2 E2 E2 G6 | E2 C2 E2 =E6 | D2 F2 F2 E2 E2 E2 | =D2 D2 D2 E6 | E2 E2 E2 D2 D4 | F2 D2 E2 D2 C4 | %22
 E2 E2 E2 E2 D2 D2 | =D4 _D2 C6- | C6 z6 |] %25
V:3
 z2 A,,2 A,2 A,2 =A,,2 =A,2 | =A,2 B,,2 B,2 B,2 B,,2 B,2 | B,2 E,,2 B,2 B,2 E,,2 B,2 | %3
 B,2 A,,2 A,2 A,2 G,2 F,2 | E,2 D,2 A,2 A,2 D,2 A,2 | A,2 A,,2 A,2 A,2 G,,2 A,2 | %6
 A,2 B,,2 B,2 B,2 B,,2 B,2 | B,2 E,,2 A,2 F,2 G,4 | z2 E,,2 G,2 G,2 E,,2 G,2 | %9
 G,2 A,,2 A,2 A,2 E,,2 A,2 | A,2 B,,2 G,2 G,2 E,,2 B,,2 | _C,2 =C,2 G,2 =E,2 C,4 | %12
 z2 =A,,2 =A,2 A,2 F,,2 A,2 | .=A,4 F,2 B,2 _A,4 | z2 E,,2 B,2 B,2 E,,2 B,2 | %15
 B,2 A,2 E,2 C,2 A,,4 | B,2 G,2 A,2 B,6 | A,2 A,2 C2 B,6 | A,2 A,2 A,2 A,2 G,2 A,2 | %19
 B,2 B,2 F,2 G,6 | A,2 G,2 F,2 G,2 G,4 | B,2 G,2 G,2 A,2 A,4 | A,2 G,2 A,2 C2 B,2 F,2 | %23
 F,4 G,2 A,6- | A,6 z6 |] %25
V:4
 z4 E,2 .E,4 F,2 | .F,4 F,2 .F,4 F,2 | .F,4 [E,G,]2 .[E,G,]4 [E,G,]2 | .[E,G,]4 E,2 .E,6 | z12 | %5
 z4 E,2 .E,4 F,2 | .F,4 A,2 .A,4 A,2 | .A,4 E,2 E,2 E,4 | z4 E,2 .E,4 E,2 | .E,4 E,2 .E,4 E,2 | %10
 .E,4 E,2 .E,6 | z12 | z4 F,2 .F,4 F,2 | .F,6 z6 | z4 E,2 .E,4 E,2 | E,2 .A,,4 z6 | %16
 E,2 E,2 E,2 E,6 | A,,2 A,,2 A,,2 C,6 | D,2 D,2 D,2 A,,2 B,,2 C,2 | B,,2 B,,2 B,,2 E,6 | %20
 A,,2 A,,2 A,,2 A,,2 E,4 | E,2 E,2 E,2 A,,2 A,,4 | C,2 .E,4 z6 | B,,4 E,2 A,,6- | A,,6 z6 |] %25
V:5
 x12 | x12 | x12 | x12 | x12 | x12 | x12 | x12 | x12 | x12 | x12 | x12 | x12 | z2 B,,4- B,,6 | %14
 x12 | x12 | x12 | x12 | x12 | x12 | x12 | x12 | x12 | x12 | x12 |] %25

